images/icons/v2/mic-solid-28.svg

<svg height="28" viewBox="0 0 28 28" width="28" xmlns="http://www.w3.org/2000/svg"><path d="m14 20a5 5 0 0 1 -5-5v-8a5 5 0 0 1 5-5 5 5 0 0 1 5 5v8a5 5 0 0 1 -5 5zm8.5-5.5h-1.5a7.27 7.27 0 0 1 -7 7.5 7.27 7.27 0 0 1 -7-7.5h-1.5a8.82 8.82 0 0 0 7.75 9v4.5h1.5v-4.54a8.82 8.82 0 0 0 7.75-8.96z"/></svg>

<svg xmlns="http://www.w3.org/2000/svg" width="28" height="28" viewBox="0 0 28 28"><title>mic-solid-28</title><path d="M14,20h0a5,5,0,0,1-5-5V7a5,5,0,0,1,5-5h0a5,5,0,0,1,5,5v8A5,5,0,0,1,14,20Zm8.5-5.5H21A7.27,7.27,0,0,1,14,22a7.27,7.27,0,0,1-7-7.5H5.5a8.82,8.82,0,0,0,7.75,9V28h1.5V23.46A8.82,8.82,0,0,0,22.5,14.5Z"/></svg>
